packages/ffe-icons/icons/open/400/sm/list_alt_add.svg

<svg xmlns="http://www.w3.org/2000/svg" height="20" viewBox="0 -960 960 960" width="20"><path d="M216-216v-528 528Zm0 72q-29.7 0-50.85-21.15Q144-186.3 144-216v-528q0-29.7 21.15-50.85Q186.3-816 216-816h528q29.7 0 50.85 21.15Q816-773.7 816-744v301q0 15.256-10.289 25.128-10.29 9.872-25.5 9.872Q765-408 754.5-418.35 744-428.7 744-444v-300H216v528h228q15.3 0 25.65 10.289 10.35 10.29 10.35 25.5Q480-165 469.65-154.5 459.3-144 444-144H216Zm107.789-144Q339-288 349.5-298.289q10.5-10.29 10.5-25.5Q360-339 349.711-349.5q-10.29-10.5-25.5-10.5Q309-360 298.5-349.711q-10.5 10.29-10.5 25.5Q288-309 298.289-298.5q10.29 10.5 25.5 10.5Zm0-156Q339-444 349.5-454.289q10.5-10.29 10.5-25.5Q360-495 349.711-505.5q-10.29-10.5-25.5-10.5Q309-516 298.5-505.711q-10.5 10.29-10.5 25.5Q288-465 298.289-454.5q10.29 10.5 25.5 10.5Zm0-156Q339-600 349.5-610.289q10.5-10.29 10.5-25.5Q360-651 349.711-661.5q-10.29-10.5-25.5-10.5Q309-672 298.5-661.711q-10.5 10.29-10.5 25.5Q288-621 298.289-610.5q10.29 10.5 25.5 10.5ZM636-444q15.3 0 25.65-10.289 10.35-10.29 10.35-25.5Q672-495 661.65-505.5 651.3-516 636-516H468q-15.3 0-25.65 10.289-10.35 10.29-10.35 25.5Q432-465 442.35-454.5 452.7-444 468-444h168Zm0-156q15.3 0 25.65-10.289 10.35-10.29 10.35-25.5Q672-651 661.65-661.5 651.3-672 636-672H468q-15.3 0-25.65 10.289-10.35 10.29-10.35 25.5Q432-621 442.35-610.5 452.7-600 468-600h168ZM432-324.211Q432-309 442.35-298.5 452.7-288 468-288h25q15.3 0 25.65-10.289 10.35-10.29 10.35-25.5Q529-339 518.65-349.5 508.3-360 493-360h-25q-15.3 0-25.65 10.289-10.35 10.29-10.35 25.5Zm252 167.959h-72q-15.3 0-25.65-10.374Q576-177 576-192.234t10.35-25.539q10.35-10.305 25.65-10.305h72v-71.688Q684-315 694.289-325.5q10.29-10.5 25.5-10.5 15.211 0 25.585 10.35T755.748-300v72h72.168q15.336 0 25.71 10.35T864-192q0 15.3-10.374 25.65Q843.252-156 827.916-156h-72.168v72q0 15.3-10.374 25.65Q735-48 720-48q-15.3 0-25.65-10.374Q684-68.748 684-84.084v-72.168Z"/></svg>

<svg xmlns="http://www.w3.org/2000/svg" height="20" viewBox="0 -960 960 960" width="20"><path d="M216-216v-528 528Zm0 72q-29.7 0-50.85-21.15Q144-186.3 144-216v-528q0-29.7 21.15-50.85Q186.3-816 216-816h528q29.7 0 50.85 21.15Q816-773.7 816-744v301q0 15.26-10.29 25.13t-25.5 9.87q-15.21 0-25.71-10.35T744-444v-300H216v528h228q15.3 0 25.65 10.29Q480-195.42 480-180.21t-10.35 25.71Q459.3-144 444-144H216Zm107.79-144q15.21 0 25.71-10.29t10.5-25.5q0-15.21-10.29-25.71t-25.5-10.5q-15.21 0-25.71 10.29t-10.5 25.5q0 15.21 10.29 25.71t25.5 10.5Zm0-156q15.21 0 25.71-10.29t10.5-25.5q0-15.21-10.29-25.71t-25.5-10.5q-15.21 0-25.71 10.29t-10.5 25.5q0 15.21 10.29 25.71t25.5 10.5Zm0-156q15.21 0 25.71-10.29t10.5-25.5q0-15.21-10.29-25.71t-25.5-10.5q-15.21 0-25.71 10.29t-10.5 25.5q0 15.21 10.29 25.71t25.5 10.5ZM636-444q15.3 0 25.65-10.29Q672-464.58 672-479.79t-10.35-25.71Q651.3-516 636-516H468q-15.3 0-25.65 10.29Q432-495.42 432-480.21t10.35 25.71Q452.7-444 468-444h168Zm0-156q15.3 0 25.65-10.29Q672-620.58 672-635.79t-10.35-25.71Q651.3-672 636-672H468q-15.3 0-25.65 10.29Q432-651.42 432-636.21t10.35 25.71Q452.7-600 468-600h168ZM432-324.21q0 15.21 10.35 25.71T468-288h25q15.3 0 25.65-10.29Q529-308.58 529-323.79t-10.35-25.71Q508.3-360 493-360h-25q-15.3 0-25.65 10.29Q432-339.42 432-324.21Zm252 167.96h-72q-15.3 0-25.65-10.38Q576-177 576-192.23q0-15.24 10.35-25.54 10.35-10.31 25.65-10.31h72v-71.69q0-15.23 10.29-25.73t25.5-10.5q15.21 0 25.58 10.35 10.38 10.35 10.38 25.65v72h72.17q15.33 0 25.71 10.35Q864-207.3 864-192q0 15.3-10.37 25.65Q843.25-156 827.92-156h-72.17v72q0 15.3-10.38 25.65Q735-48 720-48q-15.3 0-25.65-10.37Q684-68.75 684-84.08v-72.17Z"/></svg>
